icons/sanity/sanity-plain.svg

<svg xmlns="http://www.w3.org/2000/svg" viewBox="0 0 128 128"> 
  <path fill="#F03E2F" d="M 0 0 L 0 128 L 128 128 L 128 0 L 0 0 z M 63.703125 22.755859 C 82.035925 22.755859 92.644819 32.269456 95.261719 45.660156 L 78.634766 45.660156 C 76.801466 40.380856 72.21245 36.269531 63.84375 36.269531 C 54.90125 36.269531 48.799019 41.38485 48.449219 49.46875 L 48.433594 49.46875 C 51.546039 51.424935 55.445799 52.976941 60.175781 54.15625 L 74.84375 57.498047 C 87.94255 60.453947 95.917969 67.794959 95.917969 79.755859 C 96.019869 84.966659 94.296656 90.053663 91.035156 94.164062 C 91.035156 93.747927 91.009532 93.354091 90.994141 92.951172 C 91.008841 93.345587 91.019531 93.743361 91.019531 94.150391 C 85.841631 100.66669 76.746387 104.32227 66.054688 104.32227 C 48.057787 104.32227 35.462962 95.620947 32.664062 80.498047 L 49.947266 80.498047 C 52.172466 87.440847 58.062834 90.658203 65.927734 90.658203 C 75.504946 90.658203 81.875781 85.648357 82.03125 76.861328 C 78.831263 74.841522 74.735525 73.219096 69.595703 71.904297 L 55.195312 68.6875 C 43.663913 66.1029 34.763672 60.068172 34.763672 47.076172 C 34.702972 42.059072 36.342428 37.163609 39.423828 33.162109 C 44.419828 26.700509 53.109325 22.755859 63.703125 22.755859 z "/>
</svg>

<svg xmlns="http://www.w3.org/2000/svg" viewBox="0 0 128 128"><path fill="#F03E2F" d="M0 0v128h128V0H0zm63.703 22.756c18.333 0 28.942 9.513 31.559 22.904H78.635c-1.834-5.28-6.423-9.39-14.791-9.39-8.943 0-15.045 5.115-15.395 13.199h-.015c3.112 1.956 7.012 3.508 11.742 4.687l14.668 3.342c13.099 2.956 21.074 10.297 21.074 22.258a22.464 22.464 0 01-4.883 14.408c0-.416-.025-.81-.04-1.213.014.395.025.792.025 1.2-5.178 6.516-14.274 10.171-24.965 10.171-17.997 0-30.592-8.701-33.39-23.824h17.282c2.225 6.943 8.116 10.16 15.98 10.16 9.578 0 15.949-5.01 16.104-13.797-3.2-2.02-7.295-3.642-12.435-4.957l-14.4-3.216c-11.532-2.585-20.432-8.62-20.432-21.612a22.355 22.355 0 014.66-13.914c4.996-6.461 13.685-10.406 24.28-10.406z"/></svg>
